!!!!SEGMENT: suisse38.krn
!!!OTL@EN: "Jealousy" There is a girl in this enclosure
!!!OTL@@DE: "Eifersucht" Es ist e Maidli in diesem Zwing
!!!ARE: Europa, Mitteleuropa, Schweiz; Elsass
!!!SCT: Z1163
!!!YEM: Copyright 1995, estate of Helmut Schaffrath.
**kern
*ICvox
*Ivox
*M2/4
*k[b-e-]
*B-:
{16b-L
16ccJ
=1
8ddL
8b-J
8b-L
16cc
16ddJ
=2
8ee-L
8ccJ
8cc}L
{16b-
16ccJ
=3
8ddL
8b-J
8b-L
16cc
16ddJ
=4
8ee-L
8ccJ
8ccL
8ffJ
=5
4cc
8r}
{8dd
=6
8ee-L
8ccJ
8ddL
8b-J
=7
4cc
8cc}L
{8ddJ
=8
8ee-L
8ddJ
8ccL
8ddJ
=9
4b-
8b-}L
{8b-J
=10
4cc
8b-L
8aJ
=11
4b-
8r}
==
*-
!!!AGN: Liebes - Lied
!!!ONB: ESAC (Essen Associative Code) Database: ZUCCAL
!!!AMT: simple duple
!!!AIN: vox
!!!EED: Helmut Schaffrath
!!!EEV: 1.1
